X:1
T:Big Reel of Ballycanally, The
R:reel
D:Solas: Sunny Spells and Scattered Showers,
D:Enda Scahill : Pick It Up
M:C|
K:G
|DG~G2 A2dc|AGFG AGFG|DG~G2 A2dc|AGFG =F3E|
DG~G2 A2dc|AGFG ABcA| d2de fedc|AGFG AG~G2:|
|:g2dg ~g2dg|g2ag fdef|g2fg ~a3g|fdcA BGBd|
g2fg a=f~f2|=fgfd ~e3c|d2de fedc|AGFG AG~G2:|
|:D2(3EFG A2 dc|AGFG AGFG|D2(3EFG A2 dc|AGFG ~=F3 E|
|D2(3EFG A2 dc| AGFG ABcA|~d3 e fd (3ddd|1 dedc AGGF:|2 dedc AGGA||
|g2 dg (3ggg dg|(3ggg ag fdef|(3ggg fg ~a3 g|fdcA BGBd|
|g2 fg a=f (3fff|=fgfd e2 ec|~d3 e fedc|1 AGFG AGGA:|2 AGFG AGGE|
